X:104
T:New Year's Day in the Morning
M:6/8
L:1/8
B:Thompson's Compleat Collection of 200 Favourite Country Dances, vol. 1 (London, 1757)
Z:Transcribed and edited by Fynnian Titford-Mock, 2007
Z:abc's:AK/Fiddler's Companion
K:A
A2c d2f|eca cBA|fdf ecA|GBA GFE|A2c d2f|eca cBA|gba gfe|Bc^d e3:|
|:Ae=d cBA|=GFG FED|dfe dcB|AFA GFE|gba gfe|dBd cBA|fdf ecA|EFG A3:|

